X:2
T:Sherele
T:Small Scissors
R:frailach
H:Also played in Gphr =B
Z:id:hn-frailach-2
M:4/4
L:1/8
Q:1/4=140
K:Dphr ^f
DC=B,C D2 E2 | D8 | ^FEDE F2 G2 | A8 | AB c2 c2 c2 |
cB BA AG G^F | ^FG A2 A2 A2 | AG G^F FE ED | C=B, CD EG ^FE | D8 :|
|: G4 B4 | d8 | dc cB BA AG | A2- A/B/c/B/ A4 |
A3B c3d | e8 | ed dc cB BA | G2- G/A/B/A/ G4 :|
|: AG ^F2 FE D2 | DG^FG A2 d2 | AG ^F2 FE D2 | EDCE D4 :|

